logos/sk-hynix.svg

<?xml version="1.0" encoding="UTF-8"?>
<svg width="512px" height="269px" viewBox="0 0 512 269" version="1.1" xmlns="http://www.w3.org/2000/svg" preserveAspectRatio="xMidYMid">
    <title>SK Hynix</title>
    <g>
        <path d="M45.4183793,177.262781 L43.0843172,176.167165 C35.5908088,172.618666 29.7834535,169.397985 29.7834535,163.44794 C29.7834535,158.430736 33.8011405,154.784716 41.7211562,154.784716 C44.6367002,154.784716 47.02039,155.129829 49.4873972,155.578474 C50.7753921,155.801889 52.1466318,155.988976 53.2807976,155.988976 C60.0902131,155.988976 63.9830082,152.001043 66.584505,144.420852 L67.7879513,140.828198 L66.6506095,140.363814 C63.2629455,139.018965 53.1915328,135.407212 40.6253523,135.407212 C17.1600492,135.407212 4.77380962,150.459008 4.78020328,166.068431 C4.78020328,173.943528 7.24721044,179.652955 11.1111046,184.15122 C15.7821759,189.574682 22.3192931,193.23962 28.5923463,196.35168 L29.8026163,196.947434 C39.4719511,201.689276 48.192954,205.194344 48.192954,212.223734 C48.1993659,218.464815 41.7531245,222.008391 33.1346562,222.008391 C21.3251172,222.008391 11.0085699,215.26726 9.69498214,214.453522 L0,232.619682 L1.20993056,233.321363 C5.10067293,235.525781 16.8775234,241.520125 34.7558297,241.520125 C56.6512176,241.507229 73.2345662,228.954409 73.2345662,209.634848 C73.2345662,190.417912 57.8687007,183.292435 45.4183793,177.262781 Z M131.066812,186.232791 L170.782267,137.533648 L142.485484,137.533648 L110.805403,179.562318 L110.331146,179.562318 L110.331146,137.533648 L87.0004007,137.533648 L87.0132244,240.69894 L88.3973059,240.69894 C98.4831548,240.69894 110.484939,236.027756 110.484939,219.188098 L110.484939,195.498508 L110.959196,195.498508 L143.254431,239.410945 L172.941707,239.410945 L131.066812,186.232791 Z" fill="#E31837"></path>
        <g transform="translate(110.704069, 0.000000)">
            <path d="M95.4267314,63.3521489 C127.619449,64.6528585 153.570976,76.2317354 171.346161,87.5672173 L169.446935,88.6148382 C160.656341,93.4058812 147.161246,99.7985167 127.228564,99.8829995 C121.64098,99.8957142 118.552425,99.4534257 115.316508,99.459783 C100.68753,99.5110049 98.4127324,107.738661 97.9706254,118.676719 L97.9270367,119.953542 L97.9270367,119.953542 L97.8808062,121.227561 C97.4734552,132.041466 96.6587812,142.423809 92.3510004,149.120336 L91.7891446,147.551642 C89.9195316,142.418694 87.152459,135.731116 82.3869034,127.968229 L81.9783465,127.260882 C78.6018697,121.479064 75.9527326,118.514852 75.7740634,118.305269 L76.5256544,116.155846 L76.5256544,116.155846 L95.4267314,63.3521489 L95.4267314,63.3521489 Z M61.4014134,27.0211 C73.0013285,35.9600022 84.7057882,47.5486106 94.7980949,62.4198684 L95.4267494,63.353602 L58.5819924,108.56693 L57.8772228,108.464987 C56.3523463,108.263264 52.460332,107.840588 46.7916704,107.854909 C43.3699014,107.862175 40.2557174,108.027465 37.4106674,108.278126 C44.4464154,103.876129 50.9508714,95.9240179 50.9054624,84.1208181 C50.8734214,68.4411004 41.0821344,61.18103 41.0567054,49.2112682 C41.0118404,36.0305259 53.1866354,28.5722884 61.4014134,27.0211 Z" fill="#E31837"></path>
            <path d="M14.5329268,112.065895 C12.7348807,112.071955 11.8067128,110.922838 11.5186409,108.915541 L11.4187663,108.049065 C10.5642711,100.269614 2.6760034,28.1380202 0.866915815,11.3610298 L0.609177051,8.97719301 C0.390992668,7.05335022 0.00587170544,4.10405644 7.10542736e-15,2.9925741 C-0.00634048297,1.03179201 1.27517002,0.00644555929 2.78105793,0 L3.06605718,0.00567796096 C8.09726711,0.209726513 31.4481984,5.90976011 56.1899285,23.2602858 L55.7462761,23.3895838 C48.3897729,25.6103828 35.7566628,33.1853633 35.8131795,48.5390263 C35.8640381,62.411991 45.7901001,70.0435111 45.8413584,83.9548013 C45.9249118,106.580719 19.9154598,112.052927 14.5329268,112.065895 Z M94.4668469,155.138003 C94.8640892,156.188778 95.2357205,157.072265 95.6138908,157.687473 C96.1969488,158.668318 96.9467504,159.116964 97.8822587,159.116964 C98.4653166,159.110607 99.1829683,158.911713 99.98401,158.553887 L186.500696,118.328775 C188.193479,117.544289 189.539976,116.92129 190.468336,116.493249 L191.740833,115.893681 C193.435656,115.1036 195.571704,114.123181 196.389117,113.641714 C197.4784,113.020512 197.978268,112.115955 197.978268,111.193961 C197.971856,110.674476 197.823875,110.154991 197.529803,109.680916 L197.404365,109.487019 C195.685405,106.924859 188.312572,99.2107105 176.191881,90.8036433 L174.09279,91.9543044 C164.17201,97.3524792 149.316163,104.663472 127.928451,104.747084 L126.979442,104.745433 C122.295338,104.717599 120.894477,104.403314 117.521724,104.394578 L117.188996,104.394706 C105.98818,104.431033 103.187995,109.226276 102.777893,119.04944 L102.73062,120.664026 C102.688887,122.254766 102.64692,124.131562 102.566466,126.142767 L102.504403,127.555505 C102.089109,136.185231 100.822913,147.458846 94.4668469,155.138003 Z" fill="#F58025"></path>
        </g>
        <path d="M293.342681,182.35482 C300.687504,182.35482 302.934343,186.441437 304.836344,190.970408 L319.069941,225.293496 L319.460826,225.293496 L333.064548,183.431389 L347.174496,183.431389 L325.375195,242.095192 C316.833614,265.18247 305.831456,268.168417 296.392783,268.168417 C289.722273,268.168417 284.820318,265.784781 284.307699,265.522133 L287.870437,254.718487 L288.136694,254.855168 C289.084006,255.330236 292.274227,256.807505 295.771236,256.807505 C303.268344,256.807505 307.97166,252.642365 312.130298,239.596216 L286.345387,183.431934 L286.843674,183.285002 L287.506821,183.109706 C288.797572,182.787993 290.970349,182.35482 293.342681,182.35482 Z M229.897912,154.017478 C236.850361,154.017478 241.329408,159.073371 241.329408,165.807963 L241.329408,189.856288 L242.212954,189.105041 L242.638713,188.75857 C245.304565,186.62611 251.506247,182.352822 259.508301,182.352822 C270.452789,182.352822 278.526598,188.062068 278.526598,201.973358 L278.526598,239.414033 L263.916855,239.414033 L263.916855,205.978294 C263.916855,199.820403 260.520715,195.046593 254.093709,195.046593 C247.980683,195.046593 242.796789,199.871625 241.329408,201.082787 L241.329408,239.414033 L226.822182,239.414033 L226.822182,154.017478 L229.897912,154.017478 Z M388.710381,182.593129 L389.157034,182.597742 C396.485775,182.748119 408.926206,186.634619 409.179329,202.935948 L409.183253,203.444081 L409.183253,239.410945 L395.092541,239.410945 L395.092541,206.97476 C395.092541,200.131367 391.331163,194.876943 384.077559,194.876943 C379.635236,194.876943 375.537038,197.937505 373.679898,199.52439 L373.282885,199.870445 L372.735774,200.368405 L372.735774,239.410945 L358.632239,239.410945 L358.631136,201.319808 L358.622512,200.266416 C358.541321,193.71784 357.965766,189.492163 357.49808,186.889712 L357.320441,185.945143 L357.036694,184.548281 L357.385687,184.466987 C358.258452,184.275405 360.512594,183.83626 362.310299,183.83626 C368.46819,183.83626 371.153072,187.706602 371.755383,189.994151 L372.079853,189.679293 C374.275804,187.588857 380.349331,182.593129 388.710381,182.593129 Z M438.919953,183.397241 L438.919953,239.330843 L424.938006,239.330843 L424.938006,183.397241 L438.919953,183.397241 Z M462.147438,182.284345 C467.241767,182.183306 469.777481,185.032931 472.029027,188.365147 L472.648062,189.29985 L473.405905,190.466955 L481.498949,203.179979 L494.942485,182.617469 L511.589898,182.617469 L492.276839,210.664372 L512,239.319945 L495.38461,239.319945 L481.877011,218.686596 L468.369392,239.319945 L451.741198,239.319945 L471.169596,211.067609 L467.985322,206.488884 L452.86897,184.885401 L453.330031,184.654723 C454.308156,184.178141 456.571426,183.159262 459.242343,182.625286 L460.00843,182.480068 C460.760051,182.352459 461.469322,182.299482 462.147438,182.284345 Z M431.934102,157.971192 C436.746346,157.971192 440.629457,161.76452 440.629457,166.442243 C440.629457,171.100712 436.746346,174.874968 431.934102,174.874968 C427.128251,174.874968 423.24514,171.100712 423.24514,166.442243 C423.24514,161.76452 427.128251,157.971192 431.934102,157.971192 Z" fill="#F58025"></path>
    </g>
</svg>

<?xml version="1.0" encoding="UTF-8"?>
<svg width="512" height="269" version="1.1" xmlns="http://www.w3.org/2000/svg" preserveAspectRatio="xMidYMid">
	<path d="m45.418 177.263-2.334-1.096c-7.493-3.548-13.3-6.769-13.3-12.72 0-5.016 4.017-8.662 11.937-8.662 2.916 0 5.3.345 7.766.793 1.288.224 2.66.411 3.794.411 6.81 0 10.702-3.988 13.304-11.568l1.203-3.593-1.137-.464c-3.388-1.345-13.46-4.957-26.026-4.957-23.465 0-35.851 15.052-35.845 30.661 0 7.876 2.467 13.585 6.331 18.083 4.671 5.424 11.208 9.089 17.481 12.2l1.21.596c9.67 4.742 18.391 8.247 18.391 15.277.006 6.24-6.44 9.784-15.058 9.784-11.81 0-22.126-6.74-23.44-7.554L0 232.62l1.21.701c3.89 2.205 15.668 8.2 33.546 8.2 21.895-.014 38.479-12.567 38.479-31.886 0-19.217-15.366-26.343-27.817-32.372Zm85.649 8.97 39.715-48.7h-28.297l-31.68 42.03h-.474v-42.03h-23.33l.012 103.166h1.384c10.086 0 22.088-4.671 22.088-21.51v-23.69h.474l32.295 43.912h29.688l-41.875-53.178Z" fill="#E31837"/>
	<path d="M206.13 63.352c32.194 1.3 58.145 12.88 75.92 24.215l-1.899 1.048c-8.79 4.79-22.286 11.184-42.218 11.268-5.588.013-8.677-.43-11.912-.423-14.63.051-16.904 8.279-17.346 19.217l-.044 1.277-.046 1.274c-.407 10.813-1.222 21.196-5.53 27.892l-.562-1.568c-1.87-5.133-4.636-11.82-9.402-19.584l-.409-.707c-3.376-5.782-6.025-8.746-6.204-8.956l.752-2.15 18.9-52.803Zm-34.025-36.33c11.6 8.938 23.305 20.527 33.397 35.398l.629.934-36.845 45.213-.705-.102c-1.525-.202-5.417-.624-11.085-.61-3.422.007-6.536.172-9.381.423 7.035-4.402 13.54-12.354 13.495-24.157-.033-15.68-9.824-22.94-9.85-34.91-.044-13.18 12.13-20.639 20.345-22.19Z" fill="#E31837"/>
	<path d="M125.237 112.066c-1.798.006-2.726-1.143-3.014-3.15l-.1-.867c-.855-7.78-8.743-79.911-10.552-96.688l-.258-2.384c-.218-1.924-.603-4.873-.609-5.984-.006-1.961 1.275-2.987 2.781-2.993l.285.006c5.031.204 28.382 5.904 53.124 23.254l-.444.13c-7.356 2.22-19.99 9.795-19.933 25.149.051 13.873 9.977 21.505 10.028 35.416.084 22.626-25.925 28.098-31.308 28.11Zm79.934 43.072c.397 1.05.769 1.934 1.147 2.55.583.98 1.333 1.429 2.268 1.429.583-.006 1.301-.205 2.102-.563l86.517-40.225c1.693-.785 3.039-1.408 3.967-1.836l1.273-.6c1.695-.79 3.83-1.77 4.648-2.251 1.09-.621 1.59-1.526 1.59-2.448a2.929 2.929 0 0 0-.45-1.513l-.125-.194c-1.719-2.562-9.091-10.276-21.212-18.683l-2.1 1.15c-9.92 5.398-24.776 12.71-46.163 12.793l-.95-.002c-4.684-.027-6.084-.342-9.457-.35h-.333c-11.2.036-14 4.831-14.411 14.654l-.047 1.615c-.042 1.59-.084 3.468-.164 5.479l-.063 1.413c-.415 8.63-1.681 19.903-8.037 27.582Z" fill="#F58025"/>
	<path d="M293.343 182.355c7.345 0 9.591 4.086 11.493 8.615l14.234 34.323h.39l13.605-41.862h14.11l-21.8 58.664c-8.541 23.087-19.544 26.073-28.982 26.073-6.67 0-11.573-2.383-12.085-2.646l3.562-10.804.267.137c.947.475 4.137 1.953 7.634 1.953 7.497 0 12.2-4.166 16.36-17.212l-25.786-56.164.499-.147.663-.175c1.29-.322 3.463-.755 5.836-.755Zm-63.445-28.338c6.952 0 11.431 5.056 11.431 11.791v24.048l.884-.751.426-.346c2.666-2.133 8.867-6.406 16.87-6.406 10.944 0 19.018 5.71 19.018 19.62v37.441h-14.61v-33.436c0-6.158-3.396-10.931-9.823-10.931-6.113 0-11.297 4.825-12.765 6.036v38.331h-14.507v-85.397h3.076Zm158.812 28.576.447.005c7.329.15 19.77 4.037 20.022 20.338l.004.508v35.967h-14.09v-32.436c0-6.844-3.762-12.098-11.015-12.098-4.443 0-8.541 3.06-10.398 4.647l-.397.346-.547.498v39.043h-14.104V201.32l-.01-1.054c-.08-6.548-.656-10.774-1.124-13.376l-.178-.945-.283-1.397.349-.081c.872-.192 3.127-.63 4.924-.63 6.158 0 8.843 3.87 9.445 6.157l.325-.315c2.196-2.09 8.27-7.086 16.63-7.086Zm50.21.804v55.934h-13.982v-55.934h13.982Zm23.227-1.113c5.095-.1 7.63 2.749 9.882 6.081l.62.935.757 1.167 8.093 12.713 13.443-20.563h16.648l-19.313 28.047L512 239.32h-16.615l-13.508-20.633-13.508 20.633h-16.628l19.429-28.252-3.185-4.58-15.116-21.603.461-.23c.978-.477 3.241-1.496 5.912-2.03l.766-.145c.752-.128 1.461-.18 2.14-.196Zm-30.213-24.313c4.812 0 8.695 3.794 8.695 8.471 0 4.659-3.883 8.433-8.695 8.433-4.806 0-8.689-3.774-8.689-8.433 0-4.677 3.883-8.47 8.69-8.47Z" fill="#F58025"/>
</svg>
